public/assets/images/doneWears.svg

<svg width="65" height="64" viewBox="0 0 65 64" fill="none" xmlns="http://www.w3.org/2000/svg">
<mask id="mask0_46_205" style="mask-type:luminance" maskUnits="userSpaceOnUse" x="0" y="0" width="65" height="64">
<path d="M64.5 0H0.5V64H64.5V0Z" fill="white"/>
</mask>
<g mask="url(#mask0_46_205)">
<path d="M56.7107 3.02933C52.9693 1.02133 49.0333 0 45.0093 0H19.9933C15.9693 0 12.0333 1.01867 8.292 3.02933C3.48667 5.61067 0.5 10.72 0.5 16.3627V20.064C0.5 25.2107 4.68667 29.3973 9.83333 29.3973H11.1667V52C11.1667 58.616 16.5507 64 23.1667 64H41.8333C48.4493 64 53.8333 58.616 53.8333 52V29.3333H55.1667C60.3133 29.3333 64.5 25.1467 64.5 20V16.3627C64.5 10.72 61.5133 5.61067 56.7107 3.02933ZM41.7373 2.66667C41.0893 7.184 37.1933 10.6667 32.5 10.6667C27.8067 10.6667 23.9107 7.184 23.2627 2.66667H41.7373ZM61.8333 20C61.8333 23.6747 58.8413 26.6667 55.1667 26.6667H53.8333V18.6667C53.8333 17.9307 53.236 17.3333 52.5 17.3333C51.764 17.3333 51.1667 17.9307 51.1667 18.6667V52C51.1667 57.1467 46.98 61.3333 41.8333 61.3333H23.1667C18.02 61.3333 13.8333 57.1467 13.8333 52V18.6667C13.8333 17.9307 13.236 17.3333 12.5 17.3333C11.764 17.3333 11.1667 17.9307 11.1667 18.6667V26.7307H9.83333C6.15867 26.7307 3.16667 23.7387 3.16667 20.064V16.3627C3.16667 11.7013 5.612 7.49333 9.55333 5.37867C12.9027 3.58133 16.4147 2.66667 19.9933 2.66667H20.5747C21.2413 8.65867 26.3347 13.3333 32.5 13.3333C38.6653 13.3333 43.7613 8.65867 44.4253 2.66667H45.0067C48.5853 2.66667 52.0973 3.57867 55.4467 5.37867C59.3853 7.49333 61.8333 11.704 61.8333 16.3627V20Z" fill="white"/>
</g>
</svg>

<svg xmlns="http://www.w3.org/2000/svg" width="65" height="64" fill="none"><mask id="a" width="65" height="64" x="0" y="0" maskUnits="userSpaceOnUse" style="mask-type:luminance"><path fill="#fff" d="M64.5 0H.5v64h64z"/></mask><g mask="url(#a)"><path fill="#fff" d="M56.71 3.03C52.97 1.02 49.034 0 45.01 0H19.992c-4.024 0-7.96 1.019-11.701 3.03C3.487 5.61.5 10.72.5 16.362v3.701c0 5.147 4.187 9.333 9.333 9.333h1.334V52c0 6.616 5.384 12 12 12h18.666c6.616 0 12-5.384 12-12V29.333h1.334c5.146 0 9.333-4.186 9.333-9.333v-3.637c0-5.643-2.987-10.752-7.79-13.334m-14.973-.363c-.648 4.517-4.544 8-9.237 8s-8.59-3.483-9.237-8zM61.833 20a6.676 6.676 0 0 1-6.666 6.667h-1.334v-8a1.334 1.334 0 0 0-2.666 0V52c0 5.147-4.187 9.333-9.334 9.333H23.167c-5.147 0-9.334-4.186-9.334-9.333V18.667a1.334 1.334 0 0 0-2.666 0v8.064H9.833a6.676 6.676 0 0 1-6.666-6.667v-3.701c0-4.662 2.445-8.87 6.386-10.984 3.35-1.798 6.862-2.712 10.44-2.712h.582c.666 5.992 5.76 10.666 11.925 10.666S43.761 8.66 44.425 2.667h.582c3.578 0 7.09.912 10.44 2.712 3.938 2.114 6.386 6.325 6.386 10.984z"/></g></svg>
